X: 99
T: 99. Helft mir Gotts G\"ute preisen
N: Derived from chor099.krn
C: Johann Sebastian Bach
%%abc-version 2.0
%%abcx-abcm2ps-target-version 5.9.1 (29 Sep 2008)
%%abc-creator hum2abc beta
%%abcx-conversion-date 2019/03/11 17:28:18
%%abc-edited-by Craig Stuart Sapp
%%humdrum-veritas 3347702636
%%humdrum-veritas-data 2404053687
%%
%%barnumbers 0
L: 1/4
M: C
%%staves [1 2 3 4]
V: 1 clef=treble
V: 2 clef=treble
V: 3 clef=treble-8
V: 4 clef=bass
K: C
[V:1] A [I:setbarnb 1]| 
[V:2] E | 
[V:3] c | 
[V:4] A,/G,/ | 
[V:1] ABcd | 
[V:2] FFGA | 
[V:3] cdGd | 
[V:4] F,E,/D,/E,^F, | 
[V:1] B3/c/!fermata!de | 
[V:2] G2!fermata!AE | 
[V:3] de!fermata!dB | 
[V:4] G,^F,/E,/!fermata!F,^G, | 
[V:1] cABB | 
[V:2] EAA^G | 
[V:3] c/d/e=fe/d/ | 
[V:4] A,/B,/ C/A,/D,E, | 
[V:1] !fermata!A3 :|]  
[V:2] !fermata!E3 :|]  
[V:3] !fermata!c3 :|]  
[V:4] !fermata!A,,3 :|]  
[V:1] e [I:setbarnb 5]| 
[V:2] E/^F/ | 
[V:3] =G/A/ | 
[V:4] C, | 
[V:1] dcBA | 
[V:2] ^GA/=G/=FE/^F/ | 
[V:3] Be/c/ d/B/c | 
[V:4] B,,/B,/A,^G,A, | 
[V:1] !fermata!B3B | 
[V:2] !fermata!^G3G | 
[V:3] !fermata!B3e | 
[V:4] !fermata!E,3E, | 
[V:1] cdee | 
[V:2] ABc/B/ A/=G/ | 
[V:3] efgc/B/ | 
[V:4] A,=G,/F,/CE, | 
[V:1] d2!fermata!BB | 
[V:2] A/G/^F!fermata!GG | 
[V:3] Ad!fermata!dd | 
[V:4] ^F,E,/D,/!fermata!G,G,/=F,/ | 
[V:1] cdee | 
[V:2] GG/=F/ E/F/G | 
[V:3] GA_BA/G/ | 
[V:4] E,D,^C,D,/E,/ | 
[V:1] d3/c/!fermata!Be | 
[V:2] F/G/A!fermata!^GB | 
[V:3] A2!fermata!ee | 
[V:4] F,E,/D,/!fermata!E,^G,, | 
[V:1] d/c/ B/A/BB | 
[V:2] AEFE/D/ | 
[V:3] EAA^G | 
[V:4] A,,C,D,E, | 
[V:1] !fermata!A3 |]  
[V:2] !fermata!^C3 |]  
[V:3] !fermata!E3 |]  
[V:4] !fermata!A,,3 |]  



